64x64/apps/Jellyamp.svg

<svg xmlns="http://www.w3.org/2000/svg" width="64" height="64" version="1.1">
 <rect style="opacity:0.2" width="56" height="56" x="4" y="5" rx="16.8" ry="16.8"/>
 <rect style="fill:#31405e" width="56" height="56" x="4" y="4" rx="16.8" ry="16.8"/>
 <path style="opacity:0.1;fill:#f4f4f7" d="M 20.800781 4 C 11.493581 4 4 11.493581 4 20.800781 L 4 21.800781 C 4 12.493581 11.493581 5 20.800781 5 L 43.199219 5 C 52.506419 5 60 12.493581 60 21.800781 L 60 20.800781 C 60 11.493581 52.506419 4 43.199219 4 L 20.800781 4 z"/>
 <path style="opacity:0.2" d="m 31.975922,13.00019 c -0.293704,0.0037 -0.588932,0.06039 -0.824192,0.164056 -1.166722,0.514125 -2.857272,2.181156 -4.913904,4.851408 -0.811864,1.054094 -1.06572,1.407782 -2.06634,2.859284 C 20.670556,25.953376 16.425593,33.8575 14.183524,39.47981 12.700439,43.19885 11.999747,45.818058 12,47.643612 c 1.69e-4,1.085114 0.159434,1.523824 0.7656,2.093682 1.73162,1.627898 7.33212,2.806868 15.155766,3.187398 2.032646,0.09868 5.979624,0.10076 8.007556,0.004 9.376234,-0.447966 15.10623,-1.8943 15.92527,-4.019402 0.19756,-0.512558 0.19248,-2.030266 -0.0118,-3.081934 -1.852558,-9.54368 -14.100014,-30.54894 -19.053996,-32.68264 -0.2271,-0.09781 -0.518768,-0.148247 -0.812474,-0.144526 z m -6.558384,13.007394 c 0.473026,0.03036 1.077502,0.14618 1.878848,0.35546 3.895582,1.017412 11.314668,4.884916 15.620592,8.140362 0.998738,0.755084 2.634106,2.35795 2.851472,2.792882 0.28136,0.562996 0.300212,0.799224 0.08204,1.269488 -0.467564,1.007756 -2.007696,2.402852 -4.55454,4.13268 -4.88996,3.321284 -11.597146,6.53662 -14.987802,7.183364 -1.326644,0.253052 -2.0708,0.09932 -2.523358,-0.52342 -1.122574,-1.544716 -1.785108,-5.802854 -1.785108,-11.456664 0,-6.57711 0.875896,-11.002416 2.324144,-11.730092 0.2786,-0.14 0.620686,-0.1944 1.093712,-0.16406 z"/>
 <path style="fill:#a245e9" d="m 31.976562,12.00018 c -0.293714,0.0037 -0.58895,0.06039 -0.824218,0.164058 -1.16676,0.514125 -2.857364,2.181156 -4.914062,4.851408 -0.81189,1.054095 -1.065754,1.407782 -2.066406,2.859284 -3.501042,5.07844 -7.746141,12.982564 -9.988282,18.604876 -1.483133,3.719042 -2.183847,6.33825 -2.183594,8.163804 1.69e-4,1.085116 0.15944,1.523826 0.765625,2.093684 1.731675,1.627898 7.332355,2.806868 15.156251,3.187398 2.032712,0.09868 5.979816,0.10076 8.007812,0.004 9.376536,-0.447966 15.106714,-1.8943 15.92578,-4.019404 0.19756,-0.512558 0.19248,-2.030266 -0.0118,-3.081934 -1.852616,-9.543682 -14.100466,-30.548947 -19.054606,-32.682648 -0.227108,-0.09781 -0.518784,-0.148247 -0.8125,-0.144526 z m -6.558594,13.007398 c 0.473042,0.03036 1.077536,0.14618 1.878908,0.355458 3.895706,1.017414 11.31503,4.88492 15.621092,8.140366 0.99877,0.755084 2.63419,2.35795 2.851564,2.792882 0.281368,0.562996 0.300222,0.799224 0.08204,1.269488 -0.467578,1.007756 -2.00776,2.402852 -4.554686,4.132682 C 36.40677,45.019738 29.69937,48.235076 26.308604,48.88182 24.981918,49.134872 24.237738,48.98114 23.785166,48.3584 22.662556,46.813682 22,42.555544 22,36.901732 c 0,-6.57711 0.875924,-11.002418 2.324218,-11.730096 0.27861,-0.14 0.620706,-0.1944 1.09375,-0.164058 z"/>
 <path style="fill:#f4f4f7;opacity:0.2" d="M 31.976562 12 C 31.682848 12.0037 31.387612 12.060394 31.152344 12.164062 C 29.985584 12.678187 28.294979 14.345373 26.238281 17.015625 C 25.426391 18.06972 25.172527 18.423498 24.171875 19.875 C 20.670833 24.95344 16.425735 32.858157 14.183594 38.480469 C 12.700461 42.199511 11.999747 44.818977 12 46.644531 C 12.000029 46.829142 12.012781 46.972026 12.023438 47.123047 C 12.138857 45.32963 12.834237 42.864059 14.183594 39.480469 C 16.425735 33.858157 20.670833 25.95344 24.171875 20.875 C 25.172527 19.423498 25.426391 19.06972 26.238281 18.015625 C 28.294979 15.345373 29.985584 13.678187 31.152344 13.164062 C 31.387612 13.060394 31.682848 13.0037 31.976562 13 C 32.270279 12.996279 32.561954 13.046721 32.789062 13.144531 C 37.743202 15.278232 49.991134 36.284443 51.84375 45.828125 C 51.917665 46.208652 51.95497 46.645261 51.976562 47.078125 C 52.016564 46.400649 51.978759 45.523175 51.84375 44.828125 C 49.991134 35.284443 37.743202 14.278232 32.789062 12.144531 C 32.561954 12.046721 32.270279 11.996279 31.976562 12 z M 22.007812 37.435547 C 22.006749 37.595288 22 37.739956 22 37.902344 C 22 43.556156 22.662546 47.814657 23.785156 49.359375 C 24.237728 49.982115 24.981908 50.133911 26.308594 49.880859 C 29.69936 49.234115 36.406759 46.020503 41.296875 42.699219 C 43.843801 40.969389 45.383984 39.574162 45.851562 38.566406 C 46.036503 38.167791 46.040336 37.925337 45.869141 37.521484 C 45.861999 37.537602 45.859302 37.549724 45.851562 37.566406 C 45.383984 38.574162 43.843801 39.969389 41.296875 41.699219 C 36.406759 45.020503 29.69936 48.234115 26.308594 48.880859 C 24.981908 49.133911 24.237728 48.982115 23.785156 48.359375 C 22.699031 46.86486 22.049272 42.816495 22.007812 37.435547 z"/>
</svg>

<svg xmlns="http://www.w3.org/2000/svg" width="64" height="64"><rect style="opacity:.2" width="56" height="56" x="4" y="5" rx="16.8" ry="16.8"/><rect style="fill:#31405e" width="56" height="56" x="4" y="4" rx="16.8" ry="16.8"/><path style="opacity:.1;fill:#f4f4f7" d="M20.8 4C11.495 4 4 11.494 4 20.8v1C4 12.495 11.494 5 20.8 5h22.4C52.505 5 60 12.494 60 21.8v-1C60 11.495 52.506 4 43.2 4H20.8z"/><path style="opacity:.2" d="M31.976 13c-.294.004-.589.06-.824.164-1.167.514-2.858 2.181-4.914 4.852-.812 1.054-1.066 1.407-2.067 2.859-3.5 5.078-7.745 12.983-9.987 18.605C12.7 43.199 12 45.818 12 47.644c0 1.085.16 1.523.766 2.093 1.731 1.628 7.332 2.807 15.155 3.188 2.033.098 5.98.1 8.008.004 9.376-.448 15.106-1.895 15.925-4.02.198-.512.193-2.03-.012-3.082-1.852-9.543-14.1-30.549-19.054-32.682a2.05 2.05 0 0 0-.812-.145zm-6.558 13.008c.473.03 1.077.146 1.878.355 3.896 1.017 11.315 4.885 15.621 8.14.999.755 2.634 2.358 2.851 2.793.282.563.3.8.082 1.27-.467 1.008-2.007 2.403-4.554 4.132-4.89 3.322-11.597 6.537-14.988 7.184-1.326.253-2.07.1-2.523-.524C22.662 47.814 22 43.556 22 37.902c0-6.577.876-11.003 2.324-11.73.278-.14.62-.195 1.094-.164z"/><path style="fill:#a245e9" d="M31.977 12c-.294.004-.59.06-.825.164-1.166.514-2.857 2.181-4.914 4.852-.812 1.054-1.065 1.407-2.066 2.859-3.501 5.078-7.746 12.982-9.988 18.605C12.7 42.199 12 44.818 12 46.644c0 1.085.16 1.523.766 2.093 1.731 1.628 7.332 2.807 15.156 3.188 2.033.098 5.98.1 8.008.004 9.376-.448 15.106-1.895 15.925-4.02.198-.512.193-2.03-.011-3.082-1.853-9.543-14.1-30.549-19.055-32.682a2.05 2.05 0 0 0-.812-.145zm-6.559 13.008c.473.03 1.078.146 1.879.355 3.896 1.017 11.315 4.885 15.621 8.14.999.755 2.634 2.358 2.852 2.793.28.563.3.8.082 1.27-.468 1.008-2.008 2.403-4.555 4.132-4.89 3.322-11.598 6.537-14.988 7.184-1.327.253-2.071.1-2.524-.524C22.663 46.814 22 42.556 22 36.902c0-6.577.876-11.003 2.324-11.73.279-.14.62-.195 1.094-.164z"/><path style="fill:#f4f4f7;opacity:.2" d="M31.977 12c-.294.004-.59.06-.825.164-1.166.514-2.857 2.181-4.914 4.852-.812 1.054-1.065 1.407-2.066 2.859-3.501 5.078-7.746 12.983-9.988 18.605C12.7 42.2 12 44.82 12 46.645c0 .184.013.327.023.478.116-1.793.811-4.259 2.16-7.643 2.243-5.622 6.488-13.527 9.989-18.605 1-1.452 1.254-1.805 2.066-2.86 2.057-2.67 3.748-4.337 4.914-4.85.236-.105.53-.161.825-.165a2.05 2.05 0 0 1 .812.145c4.954 2.133 17.202 23.14 19.055 32.683.074.38.111.817.133 1.25a9.782 9.782 0 0 0-.133-2.25c-1.853-9.544-14.1-30.55-19.055-32.683a2.05 2.05 0 0 0-.812-.145zm-9.97 25.436c0 .16-.007.304-.007.466 0 5.654.663 9.913 1.785 11.457.453.623 1.197.775 2.524.522 3.39-.647 10.098-3.86 14.988-7.182 2.547-1.73 4.087-3.125 4.555-4.133.185-.398.188-.64.017-1.045l-.017.045c-.468 1.008-2.008 2.403-4.555 4.133-4.89 3.322-11.598 6.535-14.988 7.182-1.327.253-2.071.101-2.524-.522-1.086-1.494-1.736-5.543-1.777-10.923z"/></svg>
